X:788
T:Mist Covered Mountains #2, The
C:Joe Buchanan's Scottish Tome - Page 537.2
I:537 2
Z:Carl Allison
R:Slow Air
L:1/4
M:3/4
K:C
"Am"A3 | A3 | c> A B | "Em"A G E | "G"G3 | G3 | "G"B> A B | "Em"A G E | 
"Am"c3 | "G"d3 | "C"e> ^f g | "G"B> A G | "Am"A> B e | "Dm"d c B | "Am"A3- | A3 |
A> A A | A2 A | e> "Am"A B | "Em"A G E | "G"G> G G | "G"G2 G | B> A B | "Em"A G E | 
"Am"c> c c | "G"d2 d | "C"e ^f g | "G"B> A G | "Am"A> B e | "Dm"d c B | "Am"A3- | A3 :|

